plasma/desktoptheme/Materia-Mono/icons/phone.svg

<svg xmlns="http://www.w3.org/2000/svg" xmlns:osb="http://www.openswatchbook.org/uri/2009/osb" id="22-22-svg" width="22" height="22" version="1.1" viewBox="0 0 22 22">
 <defs id="22-22-defs4">
  <linearGradient id="22-22-linearGradient5606" osb:paint="solid">
   <stop id="22-22-stop5608" offset="0" style="stop-color:#000000"/>
  </linearGradient>
 </defs>
 <g id="22-22-phone">
  <rect style="opacity:0;fill:#111213" id="22-22-rect6" width="22" height="22" x="0" y="0" rx="0" ry="0"/>
  <path style="fill:#dfdfdf;filter:url(#filter7554)" id="22-22-path8" d="m 39,13 c -1,0 -1,1 -1,1 v 14 c 0,0 0,1 1,1 h 8 c 1,0 1,-1 1,-1 V 14 c 0,0 0,-1 -1,-1 z m 7,3 v 9 h -6 v -8.998047 z m -3.5,10 h 0.5 0.5 c 0.277,0 0.5,0.223 0.5,0.5 V 27 27.5 C 44,27.777 43.777,28 43.5,28 H 43 42.5 C 42.223,28 42,27.777 42,27.5 V 27 26.5 C 42,26.223 42.223,26 42.5,26 Z" transform="translate(-32,-9.9999997)"/>
 </g>
 <g id="22-22-phone-battery" transform="translate(-8)">
  <rect style="opacity:0;fill:#111213" id="22-22-rect11" width="22" height="22" x="30" y="0" rx="0" ry="0"/>
  <path style="fill:#dfdfdf;filter:url(#filter7554)" id="22-22-path13" d="m 39,-19 c -1,0 -1,1 -1,1 v 14 c 0,0 0,1 1,1 h 8 c 1,0 1,-1 1,-1 v -14 c 0,0 0,-1 -1,-1 z m 4,3 h 3 v 9 h -6 v -8.998047 h 3 z m 0,0.002 -2,4.998 h 2 v 3 l 2,-4 H 43 Z M 42.5,-6 h 1 c 0.277,0 0.5,0.223 0.5,0.5 v 1 c 0,0.277 -0.223,0.5 -0.5,0.5 h -1 C 42.223,-4 42,-4.223 42,-4.5 v -1 C 42,-5.777 42.223,-6 42.5,-6 Z" transform="translate(-2,22)"/>
 </g>
</svg>

<svg xmlns="http://www.w3.org/2000/svg" width="32" height="32" version="1.1" viewBox="0 0 32 32">
 <g id="22-22-phone" transform="translate(32,9.9999997)">
  <rect style="opacity:0" width="22" height="22" x="0" y="0" rx="0" ry="0"/>
  <path style="fill:#dfdfdf" d="M 39 13 C 38 13 38 14 38 14 L 38 28 C 38 28 38 29 39 29 L 47 29 C 48 29 48 28 48 28 L 48 14 C 48 14 48 13 47 13 L 39 13 z M 46 16 L 46 25 L 40 25 L 40 16.001953 L 46 16 z M 42.5 26 L 43 26 L 43.5 26 C 43.777 26 44 26.223 44 26.5 L 44 27 L 44 27.5 C 44 27.777 43.777 28 43.5 28 L 43 28 L 42.5 28 C 42.223 28 42 27.777 42 27.5 L 42 27 L 42 26.5 C 42 26.223 42.223 26 42.5 26 z" transform="translate(-32,-9.9999997)"/>
 </g>
 <g id="22-22-phone-battery" transform="translate(2,-22)">
  <rect style="opacity:0" width="22" height="22" x="30" y="0" rx="0" ry="0"/>
  <path style="fill:#dfdfdf" d="m 39,-19 c -1,0 -1,1 -1,1 v 14 c 0,0 0,1 1,1 h 8 c 1,0 1,-1 1,-1 v -14 c 0,0 0,-1 -1,-1 z m 4,3 h 3 v 9 h -6 v -8.998047 h 3 z m 0,0.002 L 41,-11 h 2 v 3 l 2,-4 H 43 Z M 42.5,-6 h 1 c 0.277,0 0.5,0.223 0.5,0.5 v 1 c 0,0.277 -0.223,0.5 -0.5,0.5 h -1 C 42.223,-4 42,-4.223 42,-4.5 v -1 C 42,-5.777 42.223,-6 42.5,-6 Z" transform="translate(-2,22)"/>
 </g>
 <g id="16-16-phone-battery" transform="translate(21,-42)">
  <rect style="opacity:0" width="16" height="16" x="33" y="26" rx="0" ry="0"/>
  <path style="fill:#dfdfdf" d="M 58.798828 -14 C 57.998828 -14 58 -13.25 58 -13.25 L 58 -2.75 C 58 -2.75 57.9988 -2 58.798828 -2 L 65.199219 -2 C 65.999219 -2 66 -2.75 66 -2.75 L 66 -13.25 C 66 -13.25 65.999158 -14 65.199219 -14 L 58.798828 -14 z M 60 -12 L 62 -12 L 64 -12 L 64 -6 L 62 -6 L 60 -6 L 60 -12 z M 62 -6 L 63.5 -9.75 L 62 -9.75 L 62 -12 L 60.5 -9 L 62 -9 L 62 -6 z M 61.5 -5 L 62 -5 L 62.5 -5 C 62.777 -5 63 -4.777 63 -4.5 L 63 -4 L 63 -3.5 C 63 -3.223 62.777 -3 62.5 -3 L 62 -3 L 61.5 -3 C 61.223 -3 61 -3.223 61 -3.5 L 61 -4 L 61 -4.5 C 61 -4.777 61.223 -5 61.5 -5 z" transform="translate(-21,42)"/>
 </g>
 <g id="16-16-phone" transform="translate(54,-10)">
  <rect style="opacity:0" width="16" height="16" x="0" y="26" rx="0" ry="0"/>
  <path style="fill:#dfdfdf" d="M 58.798828 18 C 57.998828 18 58 18.75 58 18.75 L 58 29.25 C 58 29.25 57.9988 30 58.798828 30 L 65.199219 30 C 65.999219 30 66 29.25 66 29.25 L 66 18.75 C 66 18.75 65.999158 18 65.199219 18 L 58.798828 18 z M 60 20 L 62 20 L 64 20 L 64 26 L 60 26 L 60 20 z M 61.5 27 L 62 27 L 62.5 27 C 62.777 27 63 27.223 63 27.5 L 63 28 L 63 28.5 C 63 28.777 62.777 29 62.5 29 L 62 29 L 61.5 29 C 61.223 29 61 28.777 61 28.5 L 61 28 L 61 27.5 C 61 27.223 61.223 27 61.5 27 z" transform="translate(-54,10)"/>
 </g>
 <g id="phone">
  <rect width="32" height="32" x="0" y="0" style="opacity:0.001"/>
  <path style="fill:#dfdfdf" d="M 8.5,2 C 7.669,2 7,2.669 7,3.5 V 28.5 C 7,29.331 7.669,30 8.5,30 H 23.5 C 24.331,30 25,29.331 25,28.5 V 3.5 C 25,2.669 24.331,2 23.5,2 Z M 14.5,3 H 17.5 C 17.777,3 18,3.223 18,3.5 18,3.777 17.777,4 17.5,4 H 14.5 C 14.223,4 14,3.777 14,3.5 14,3.223 14.223,3 14.5,3 Z M 19.5,3 C 19.776,3 20,3.2239 20,3.5 20,3.7761 19.776,4 19.5,4 19.224,4 19,3.7761 19,3.5 19,3.2239 19.224,3 19.5,3 Z M 8,5 H 24 V 25 H 8 Z M 15,26 H 17 C 17.554,26 18,26.446 18,27 V 28 C 18,28.554 17.554,29 17,29 H 15 C 14.446,29 14,28.554 14,28 V 27 C 14,26.446 14.446,26 15,26 Z M 9.5,27 H 11.5 C 11.777,27 12,27.223 12,27.5 12,27.777 11.777,28 11.5,28 H 9.5 C 9.223,28 9,27.777 9,27.5 9,27.223 9.223,27 9.5,27 Z M 20.5,27 H 22.5 C 22.777,27 23,27.223 23,27.5 23,27.777 22.777,28 22.5,28 H 20.5 C 20.223,28 20,27.777 20,27.5 20,27.223 20.223,27 20.5,27 Z"/>
 </g>
 <g id="phone-battery" transform="translate(0,-32)">
  <rect style="opacity:0.001" width="32" height="32" x="0" y="0"/>
  <path style="fill:#dfdfdf" d="m 16,9 v 5 h 4 l -4,7 v -5 h -4 z"/>
  <path style="fill:#dfdfdf" d="M 8.5,1 C 7.669,1 7,1.669 7,2.5 V 27.5 C 7,28.331 7.669,29 8.5,29 H 23.5 C 24.331,29 25,28.331 25,27.5 V 2.5 C 25,1.669 24.331,1 23.5,1 Z M 14.5,2 H 17.5 C 17.777,2 18,2.223 18,2.5 18,2.777 17.777,3 17.5,3 H 14.5 C 14.223,3 14,2.777 14,2.5 14,2.223 14.223,2 14.5,2 Z M 19.5,2 C 19.776,2 20,2.224 20,2.5 20,2.776 19.776,3 19.5,3 19.224,3 19,2.776 19,2.5 19,2.224 19.224,2 19.5,2 Z M 8,4 H 24 V 24 H 8 Z M 15,25 H 17 C 17.554,25 18,25.446 18,26 V 27 C 18,27.554 17.554,28 17,28 H 15 C 14.446,28 14,27.554 14,27 V 26 C 14,25.446 14.446,25 15,25 Z M 9.4998,26 H 11.5 C 11.777,26 12,26.223 12,26.5 12,26.777 11.777,27 11.5,27 H 9.4998 C 9.2228,27 8.9998,26.777 8.9998,26.5 8.9998,26.223 9.2228,26 9.4998,26 Z M 20.5,26 H 22.5 C 22.777,26 23,26.223 23,26.5 23,26.777 22.777,27 22.5,27 H 20.5 C 20.223,27 20,26.777 20,26.5 20,26.223 20.223,26 20.5,26 Z"/>
 </g>
</svg>
